X:1
T:Title
%%score { ( 1 3 ) | 2 }
L:1/8
M:3/4
K:Ab
V:1 treble nm="Grand Piano"
V:3 treble 
V:2 bass 
V:1
 z2 z2 [CE]2 | [CE]3 [_C=D] [=CE]2 | [CA]2 [DG]2 [E_G]2 | F3 =E F2 | [DB]2 [DF]2 [DA]2 | G3 F E2 | %6
 d2 c2 B2 | [CA]2 C2 [_CF]2 | [CE]4 [CE]2 | [CE]3 [_C=D] [=CE]2 | [CA]2 [DG]2 [E_G]2 | F3 =E F2 | %12
 [Fd]2 [Fc]2 [B,FB]2 | [CEA]3 [_CEG] [=CEA]2 | [EAe]2 [EGd]2 [EAc]2 | [=DFB]2 [B,DF]2 [B,_DG]2 | %16
[M:2/4] [A,CA]4 |[M:1/4] [A,EA]2 |[M:3/4] B3 =A B2 | d2 c2 B2 | [CA]3 [_CG] [=CA]2 | %21
 [Ec]2 [EB]2 [EA]2 | [EG]3 [EB] [Ge]2 | [EGB]2 [B,EG]2 [G,E]2 | [=DA]2 [DG]2 [DF]2 | E4 z2 | %26
 [CE]3 [_C=D] [=CE]2 | [CA]2 [DG]2 [E_G]2 | F3 =E F2 | [Fd]2 [Fc]2 [B,FB]2 | %30
 [CEA]3 [_CEG] [=CEA]2 | [EAe]2 [EGd]2 [EAc]2 | [DFB]2 [B,=DF]2 [B,_DG]2 |[M:2/4] [A,CA]4 |] %34
V:2
 z2 z2 [A,,A,]2 | [A,,A,]3 [A,,A,] [A,,A,]2 | [A,,E,]2 [B,,E,]2 [C,A,]2 | %3
 [D,A,D]3 [D,G,D] [D,A,D]2 | [B,,B,]2 [B,,B,]2 [B,,B,]2 | [E,B,D]3 [E,A,D] [E,G,D]2 | %6
 [E,F]2 [E,F,E]2 [E,G,D]2 | [A,,A,]2 [A,,E,]2 [A,,=D,]2 | [A,,E,]4 [A,,A,]2 | %9
 [A,,A,]3 [A,,A,] [A,,A,]2 | [A,,E,]2 [B,,E,]2 [C,A,]2 | [D,A,D]3 [D,G,D] [D,A,D]2 | %12
 [B,,B,]2 [C,=A,]2 D,2 | E,3 E, E,2 | C,2 B,,2 A,,2 | B,,2 B,,2 E,2 |[M:2/4] B,,4 |[M:1/4] C,2 | %18
[M:3/4] [E,G,E]3 [E,_G,E] [E,=G,E]2 | [E,B,E]2 [E,A,E]2 [E,G,D]2 | [A,,A,]3 [A,,A,] [A,,A,]2 | %21
 [A,,A,]2 [B,,G,]2 [C,A,]2 | [B,,B,]3 [B,,G,] [B,,B,]2 | B,,2 B,,2 B,,2 | %24
 [B,,F,]2 [B,,B,]2 [B,,A,]2 | [E,G,]4 [E,G,D]2 | [A,,A,]3 [A,,A,] [A,,A,]2 | %27
 [A,,E,]2 [A,,E,]2 [C,A,]2 | [D,A,D]3 [D,G,D] [D,A,D]2 | [B,,B,]2 [C,=A,]2 D,2 | E,3 E, E,2 | %31
 C,2 B,,2 A,,2 | B,,2 B,,2 E,2 |[M:2/4] A,,4 |] %34
V:3
 x6 | x6 | x6 | x6 | x6 | x6 | x6 | x6 | x6 | x6 | x6 | x6 | x6 | x6 | x6 | x6 |[M:2/4] x4 | %17
[M:1/4] x2 |[M:3/4] x6 | x6 | x6 | x6 | x6 | x6 | x6 | z2 B,2 E2 | x6 | x6 | x6 | x6 | x6 | x6 | %32
 x6 |[M:2/4] x4 |] %34

